X: 07073
T: MARSHALL'S HORNPIPE
C: Bob McQuillen 23 June 89
B: Bob's Note Book 7 #73
%R: hornpipe, reel
Z: 2020 John Chambers <jc:trillian.mit.edu>
M: C
L: 1/8
K: G
dc \
| BGAF GDB,D | GBAF GBdc | BGBd edBd | egdB A2dc |
| BGAF GDB,D | GBAF GDGA | BDBd cAFG | A2G2 G2 :|
|: Bc \
| d2Bd egdB | AGAB G2GB | dBdg edce | dBcB A2Bc |
| dedB ABGA | BGAG E2DE | GBdg dBGA | B2G2 G2 :|
%%begintext align
%% George Marshall is from
%% Belchertown, MA. He calls with a gang called "Wild
%% Asparagus", and they make great music, let me tell
%% you - You will really enjoy one of George's dances if
%% you get a chance
%% to go - Best wishes
%% always to you, George!
%%endtext

%%sep 1 1 500

%%sep 1 1 500

